X: 16
T: John Ryan's
Z: Paul McG
S: https://thesession.org/tunes/441#setting49707
R: polka
M: 2/4
L: 1/8
K: Dmaj
A|:dd B/c/d/B/|AF AF|dd B/c/d/B/|AF ED|
dd B/c/d/B/|AF Ad/e/|fd ec|1 d2 d2:|2 d2 dd/e/||
|:fd de/f/|gf ed/e/|fd Ad|f a a2|
fd de/f/|gf ed/e/|fd ec|1 d2 dd/e/:|2 d2 d2||

